;FLAVOR:Marlin
;TIME:7746
;Filament used: 4.64291m
;Layer height: 0.2
;MINX:63.428
;MINY:96.2
;MINZ:0.2
;MAXX:156.572
;MAXY:123.8
;MAXZ:33.4
;Generated with Cura_SteamEngine 4.11.0
M140 S60
M105
M190 S60
M104 S200
M105
M109 S200
M82 ;absolute extrusion mode
; Ender 3 Custom Start G-code
G92 E0 ; Reset Extruder
G28 ; Home all axes
G1 Z2.0 F3000 ; Move Z Axis up little to prevent scratching of Heat Bed
G1 X0.1 Y20 Z0.3 F5000.0 ; Move to start position
G1 X0.1 Y200.0 Z0.3 F1500.0 E15 ; Draw the first line
G1 X0.4 Y200.0 Z0.3 F5000.0 ; Move to side a little
G1 X0.4 Y20 Z0.3 F1500.0 E30 ; Draw the second line
G92 E0 ; Reset Extruder
G1 Z2.0 F3000 ; Move Z Axis up little to prevent scratching of Heat Bed
G1 X5 Y20 Z0.3 F5000.0 ; Move over to prevent blob squish
G92 E0
G92 E0
G1 F1500 E-6.5
;LAYER_COUNT:168
;LAYER:0
M107
G0 F6000 X67.34 Y97.685 Z0.2
;TYPE:SKIRT
G1 F1500 E0
G1 F1200 X67.954 Y97.309 E0.02395
G1 X68.663 Y96.961 E0.05022
G1 X69.074 Y96.797 E0.06493
G1 X69.368 Y96.69 E0.07534
G1 X70.123 Y96.458 E0.10161
G1 X71.198 Y96.265 E0.13794
G1 X71.383 Y96.245 E0.14413
G1 X72.221 Y96.2 E0.17204
G1 X147.777 Y96.2 E2.68504
G1 X148.566 Y96.24 E2.71132
G1 X149.128 Y96.318 E2.73019
G1 X149.452 Y96.375 E2.74113
G1 X150.222 Y96.551 E2.7674
G1 X150.887 Y96.771 E2.7907
G1 X150.921 Y96.784 E2.79191
G1 X151.643 Y97.103 E2.81816
G1 X152.064 Y97.332 E2.8341
G1 X152.335 Y97.49 E2.84453
G1 X152.996 Y97.921 E2.87078
G1 X153.491 Y98.313 E2.89178
G1 X154.065 Y98.855 E2.91804
G1 X154.413 Y99.242 E2.93535
G1 X154.609 Y99.476 E2.9455
G1 X155.084 Y100.107 E2.97177
G1 X155.517 Y100.826 E2.99969
G1 X155.534 Y100.858 E3.00089
G1 X155.98 Y101.862 E3.03743
G1 X156.085 Y102.152 E3.04769
G1 X156.316 Y102.907 E3.07395
G1 X156.502 Y103.932 E3.1086
G1 X156.523 Y104.118 E3.11482
G1 X156.572 Y104.993 E3.14397
G1 X156.572 Y115.003 E3.47691
G1 X156.532 Y115.792 E3.50318
G1 X156.451 Y116.369 E3.52256
G1 X156.393 Y116.695 E3.53357
G1 X156.216 Y117.465 E3.55985
G1 X156.06 Y117.952 E3.57686
G1 X155.761 Y118.682 E3.6031
G1 X155.44 Y119.293 E3.62605
G1 X155.285 Y119.559 E3.63629
G1 X154.854 Y120.22 E3.66254
G1 X154.478 Y120.696 E3.68271
G1 X153.938 Y121.273 E3.709
G1 X153.527 Y121.642 E3.72737
G1 X153.289 Y121.841 E3.73769
G1 X152.659 Y122.316 E3.76393
G1 X152.128 Y122.645 E3.78471
G1 X151.423 Y123.002 E3.81099
G1 X150.926 Y123.203 E3.82882
G1 X150.632 Y123.31 E3.83923
G1 X149.877 Y123.542 E3.8655
G1 X148.802 Y123.735 E3.90182
G1 X148.617 Y123.755 E3.90801
G1 X147.779 Y123.8 E3.93593
G1 X72.223 Y123.8 E6.44893
G1 X71.434 Y123.76 E6.4752
G1 X70.872 Y123.682 E6.49408
G1 X70.548 Y123.625 E6.50502
G1 X69.778 Y123.449 E6.53129
G1 X69.113 Y123.229 E6.55458
G1 X69.079 Y123.216 E6.5558
G1 X68.357 Y122.897 E6.58205
G1 X67.929 Y122.664 E6.59826
G1 X67.657 Y122.505 E6.60874
G1 X66.996 Y122.072 E6.63502
G1 X66.489 Y121.669 E6.65656
G1 X65.916 Y121.126 E6.68281
G1 X65.583 Y120.753 E6.69945
G1 X65.388 Y120.52 E6.70955
G1 X64.913 Y119.89 E6.73579
G1 X64.436 Y119.086 E6.76689
G1 X64.419 Y119.053 E6.76812
G1 X64.017 Y118.13 E6.80161
G1 X63.913 Y117.842 E6.81179
G1 X63.682 Y117.087 E6.83805
G1 X63.498 Y116.068 E6.87249
G1 X63.477 Y115.882 E6.87872
G1 X63.428 Y115.007 E6.90786
G1 X63.428 Y104.992 E7.24096
G1 X63.473 Y104.156 E7.26881
G1 X63.566 Y103.52 E7.29019
G1 X63.624 Y103.214 E7.30055
G1 X63.888 Y102.2 E7.3354
G1 X63.899 Y102.167 E7.33655
G1 X64.187 Y101.432 E7.36281
G1 X64.56 Y100.707 E7.38993
G1 X64.715 Y100.441 E7.40017
G1 X65.146 Y99.78 E7.42641
G1 X65.522 Y99.304 E7.44659
G1 X66.062 Y98.727 E7.47287
G1 X66.47 Y98.36 E7.49113
G1 X66.709 Y98.16 E7.50149
G1 X67.34 Y97.685 E7.52776
G0 F6000 X67.581 Y98.005
G1 F1200 X68.148 Y97.658 E7.54987
G1 X68.839 Y97.32 E7.57545
G1 X69.211 Y97.173 E7.58876
G1 X69.505 Y97.066 E7.59916
G1 X70.241 Y96.841 E7.62476
G1 X71.241 Y96.663 E7.65855
G1 X71.426 Y96.643 E7.66473
G1 X72.221 Y96.6 E7.69121
G1 X147.777 Y96.6 E10.20422
G1 X148.545 Y96.64 E10.2298
G1 X149.059 Y96.712 E10.24706
G1 X149.383 Y96.769 E10.258
G1 X150.133 Y96.941 E10.28359
G1 X150.744 Y97.145 E10.30502
G1 X150.778 Y97.158 E10.30623
G1 X151.481 Y97.47 E10.33181
G1 X151.862 Y97.677 E10.34623
G1 X152.133 Y97.835 E10.35666
G1 X152.777 Y98.257 E10.38227
G1 X153.232 Y98.618 E10.40159
G1 X153.79 Y99.146 E10.42714
G1 X154.106 Y99.499 E10.4429
G1 X154.302 Y99.733 E10.45305
G1 X154.764 Y100.348 E10.47864
G1 X155.164 Y101.013 E10.50445
G1 X155.181 Y101.045 E10.50565
G1 X155.604 Y101.998 E10.54033
G1 X155.709 Y102.288 E10.55059
G1 X155.933 Y103.024 E10.57618
G1 X156.104 Y103.977 E10.60838
G1 X156.125 Y104.163 E10.61461
G1 X156.172 Y104.993 E10.64226
G1 X156.172 Y115.003 E10.97519
G1 X156.132 Y115.771 E11.00077
G1 X156.058 Y116.299 E11.0185
G1 X156 Y116.625 E11.02951
G1 X155.826 Y117.374 E11.05509
G1 X155.683 Y117.819 E11.07064
G1 X155.39 Y118.53 E11.09621
G1 X155.095 Y119.092 E11.11732
G1 X154.94 Y119.358 E11.12756
G1 X154.518 Y120.001 E11.15314
G1 X154.173 Y120.438 E11.17166
G1 X153.646 Y120.999 E11.19726
G1 X153.271 Y121.335 E11.21401
G1 X153.033 Y121.534 E11.22433
G1 X152.418 Y121.996 E11.24991
G1 X151.929 Y122.298 E11.26903
G1 X151.243 Y122.644 E11.29458
G1 X150.789 Y122.827 E11.31086
G1 X150.495 Y122.934 E11.32127
G1 X149.759 Y123.159 E11.34687
G1 X148.759 Y123.337 E11.38065
G1 X148.574 Y123.357 E11.38684
G1 X147.779 Y123.4 E11.41332
G1 X72.223 Y123.4 E13.92632
G1 X71.455 Y123.36 E13.9519
G1 X70.941 Y123.288 E13.96916
G1 X70.617 Y123.231 E13.98011
G1 X69.867 Y123.059 E14.0057
G1 X69.256 Y122.855 E14.02712
G1 X69.222 Y122.842 E14.02833
G1 X68.519 Y122.53 E14.05391
G1 X68.131 Y122.319 E14.0686
G1 X67.859 Y122.16 E14.07908
G1 X67.216 Y121.737 E14.10468
G1 X66.749 Y121.365 E14.12454
G1 X66.192 Y120.835 E14.15011
G1 X65.89 Y120.496 E14.16521
G1 X65.695 Y120.263 E14.17532
G1 X65.233 Y119.649 E14.20088
G1 X64.792 Y118.903 E14.2297
G1 X64.775 Y118.87 E14.23093
G1 X64.393 Y117.994 E14.26272
G1 X64.289 Y117.706 E14.2729
G1 X64.066 Y116.97 E14.29848
G1 X63.896 Y116.023 E14.33048
G1 X63.875 Y115.837 E14.33671
G1 X63.828 Y115.007 E14.36436
G1 X63.828 Y104.992 E14.69746
G1 X63.871 Y104.198 E14.72391
G1 X63.959 Y103.595 E14.74417
G1 X64.017 Y103.289 E14.75453
G1 X64.268 Y102.327 E14.7876
G1 X64.279 Y102.294 E14.78876
G1 X64.56 Y101.578 E14.81434
G1 X64.905 Y100.908 E14.83941
G1 X65.06 Y100.642 E14.84965
G1 X65.482 Y99.999 E14.87523
G1 X65.827 Y99.562 E14.89374
G1 X66.354 Y99.001 E14.91934
G1 X66.727 Y98.667 E14.936
G1 X66.966 Y98.467 E14.94636
G1 X67.581 Y98.005 E14.97195
G0 F6000 X67.821 Y98.325
G1 F1200 X68.342 Y98.008 E14.99223
G1 X69.348 Y97.549 E15.02901
G1 X69.642 Y97.442 E15.03941
G1 X70.358 Y97.224 E15.06431
G1 X71.284 Y97.061 E15.09558
G1 X71.469 Y97.041 E15.10177
G1 X72.221 Y97 E15.12682
G1 X147.777 Y97 E17.63982
G1 X148.524 Y97.04 E17.6647
G1 X148.99 Y97.106 E17.68036
G1 X149.314 Y97.163 E17.6913
G1 X150.043 Y97.332 E17.71619
G1 X150.601 Y97.519 E17.73576
G1 X150.635 Y97.532 E17.73697
G1 X151.318 Y97.836 E17.76184
G1 X151.661 Y98.023 E17.77483
G1 X151.932 Y98.181 E17.78526
G1 X152.557 Y98.592 E17.81014
G1 X152.972 Y98.922 E17.82778
G1 X153.515 Y99.437 E17.85267
G1 X153.799 Y99.756 E17.86688
G1 X153.995 Y99.99 E17.87703
G1 X154.444 Y100.589 E17.90193
G1 X154.811 Y101.201 E17.92566
G1 X154.828 Y101.233 E17.92687
G1 X155.228 Y102.134 E17.95965
G1 X155.333 Y102.424 E17.96991
G1 X155.55 Y103.14 E17.9948
G1 X155.707 Y104.022 E18.02459
G1 X155.728 Y104.208 E18.03082
G1 X155.772 Y104.993 E18.05697
G1 X155.772 Y115.003 E18.3899
G1 X155.732 Y115.75 E18.41478
G1 X155.664 Y116.229 E18.43087
G1 X155.606 Y116.555 E18.44189
G1 X155.436 Y117.284 E18.46678
G1 X155.305 Y117.686 E18.48085
G1 X155.02 Y118.378 E18.50574
G1 X154.749 Y118.89 E18.52501
G1 X154.594 Y119.156 E18.53525
G1 X154.183 Y119.782 E18.56015
G1 X153.868 Y120.18 E18.57704
G1 X153.355 Y120.724 E18.6019
G1 X153.014 Y121.028 E18.6171
G1 X152.776 Y121.227 E18.62742
G1 X152.177 Y121.676 E18.65232
G1 X151.731 Y121.951 E18.66974
G1 X151.063 Y122.287 E18.69461
G1 X150.652 Y122.451 E18.70933
G1 X150.358 Y122.558 E18.71974
G1 X149.642 Y122.776 E18.74463
G1 X148.716 Y122.939 E18.7759
G1 X148.531 Y122.959 E18.78209
G1 X147.779 Y123 E18.80714
G1 X72.223 Y123 E21.32014
G1 X71.476 Y122.96 E21.34502
G1 X71.01 Y122.894 E21.36068
G1 X70.686 Y122.837 E21.37162
G1 X69.957 Y122.668 E21.39651
G1 X69.399 Y122.481 E21.41608
G1 X69.365 Y122.468 E21.41729
G1 X68.682 Y122.164 E21.44216
G1 X68.332 Y121.973 E21.45542
G1 X68.06 Y121.814 E21.4659
G1 X67.436 Y121.403 E21.49075
G1 X67.009 Y121.062 E21.50893
G1 X66.468 Y120.545 E21.53382
G1 X66.197 Y120.24 E21.54739
G1 X66.002 Y120.007 E21.55749
G1 X65.553 Y119.408 E21.58239
G1 X65.147 Y118.72 E21.60896
G1 X65.13 Y118.687 E21.6102
G1 X64.769 Y117.859 E21.64024
G1 X64.665 Y117.571 E21.65042
G1 X64.449 Y116.854 E21.67533
G1 X64.293 Y115.978 E21.70492
G1 X64.272 Y115.792 E21.71115
G1 X64.228 Y115.007 E21.7373
G1 X64.228 Y104.992 E22.0704
G1 X64.268 Y104.24 E22.09545
G1 X64.352 Y103.669 E22.11464
G1 X64.41 Y103.363 E22.125
G1 X64.647 Y102.453 E22.15628
G1 X64.658 Y102.42 E22.15743
G1 X64.932 Y101.724 E22.18231
G1 X65.251 Y101.11 E22.20533
G1 X65.406 Y100.844 E22.21557
G1 X65.817 Y100.218 E22.24047
G1 X66.132 Y99.82 E22.25735
G1 X66.645 Y99.276 E22.28222
G1 X66.984 Y98.974 E22.29733
G1 X67.223 Y98.774 E22.30769
G1 X67.821 Y98.325 E22.33256
G0 F6000 X68.061 Y98.646
G1 F1200 X68.537 Y98.358 E22.35107
G1 X69.485 Y97.925 E22.38573
G1 X69.779 Y97.818 E22.39614
G1 X70.474 Y97.608 E22.42028
G1 X71.327 Y97.458 E22.44909
G1 X71.512 Y97.438 E22.45528
G1 X72.221 Y97.4 E22.47889
G1 X147.777 Y97.4 E24.9919
G1 X148.502 Y97.44 E25.01605
G1 X148.921 Y97.5 E25.03013
G1 X149.245 Y97.557 E25.04107
G1 X149.952 Y97.722 E25.06521
G1 X150.492 Y97.905 E25.08418
G1 X151.459 Y98.368 E25.11984
G1 X151.73 Y98.526 E25.13027
G1 X152.337 Y98.926 E25.15445
G1 X152.713 Y99.227 E25.17047
G1 X153.239 Y99.728 E25.19463
G1 X153.493 Y100.013 E25.20733
G1 X153.689 Y100.247 E25.21748
G1 X154.124 Y100.829 E25.24165
G1 X154.458 Y101.389 E25.26333
G1 X154.475 Y101.421 E25.26454
G1 X154.852 Y102.27 E25.29543
G1 X154.957 Y102.56 E25.30569
G1 X155.166 Y103.256 E25.32986
G1 X155.309 Y104.067 E25.35725
G1 X155.33 Y104.253 E25.36348
G1 X155.372 Y104.993 E25.38813
G1 X155.372 Y115.003 E25.72106
G1 X155.332 Y115.728 E25.74522
G1 X155.27 Y116.159 E25.7597
G1 X155.212 Y116.485 E25.77071
G1 X154.941 Y117.517 E25.8062
G1 X154.928 Y117.554 E25.8075
G1 X154.65 Y118.225 E25.83166
G1 X154.403 Y118.689 E25.84914
G1 X154.248 Y118.955 E25.85938
G1 X153.849 Y119.561 E25.88352
G1 X153.562 Y119.921 E25.89883
G1 X153.063 Y120.449 E25.92299
G1 X152.758 Y120.721 E25.93658
G1 X152.52 Y120.92 E25.9469
G1 X151.938 Y121.355 E25.97107
G1 X151.533 Y121.603 E25.98686
G1 X150.883 Y121.929 E26.01105
G1 X150.515 Y122.075 E26.02422
G1 X150.221 Y122.182 E26.03462
G1 X149.526 Y122.392 E26.05877
G1 X148.673 Y122.542 E26.08758
G1 X148.488 Y122.562 E26.09377
G1 X147.779 Y122.6 E26.11738
G1 X72.223 Y122.6 E28.63039
G1 X71.498 Y122.56 E28.65454
G1 X71.079 Y122.5 E28.66861
G1 X70.755 Y122.443 E28.67956
G1 X70.048 Y122.278 E28.7037
G1 X69.508 Y122.095 E28.72267
G1 X68.534 Y121.628 E28.75859
G1 X68.262 Y121.469 E28.76907
G1 X67.656 Y121.068 E28.79324
G1 X67.27 Y120.758 E28.80971
G1 X66.745 Y120.256 E28.83387
G1 X66.504 Y119.983 E28.84598
G1 X66.309 Y119.75 E28.85608
G1 X65.874 Y119.168 E28.88025
G1 X65.503 Y118.537 E28.9046
G1 X65.486 Y118.504 E28.90583
G1 X65.145 Y117.723 E28.93418
G1 X65.041 Y117.435 E28.94436
G1 X64.833 Y116.739 E28.96852
G1 X64.691 Y115.933 E28.99574
G1 X64.67 Y115.747 E29.00197
G1 X64.628 Y115.007 E29.02662
G1 X64.628 Y104.992 E29.35972
G1 X64.666 Y104.282 E29.38337
G1 X64.745 Y103.744 E29.40145
G1 X64.803 Y103.438 E29.41181
G1 X65.027 Y102.58 E29.44131
G1 X65.038 Y102.547 E29.44246
G1 X65.305 Y101.871 E29.46664
G1 X65.597 Y101.311 E29.48764
G1 X65.752 Y101.045 E29.49788
G1 X66.151 Y100.439 E29.52201
G1 X66.438 Y100.079 E29.53733
G1 X66.937 Y99.551 E29.56149
G1 X67.24 Y99.28 E29.57501
G1 X67.479 Y99.08 E29.58538
G1 X68.061 Y98.646 E29.60952
G0 F6000 X68.301 Y98.967
G1 F1200 X68.731 Y98.707 E29.62624
G1 X69.622 Y98.301 E29.6588
G1 X69.916 Y98.194 E29.66921
G1 X70.59 Y97.991 E29.69262
G1 X71.37 Y97.856 E29.71895
G1 X71.555 Y97.836 E29.72514
G1 X72.221 Y97.8 E29.74732
G1 X147.777 Y97.8 E32.26032
G1 X148.48 Y97.84 E32.28374
G1 X148.851 Y97.894 E32.29621
G1 X149.175 Y97.951 E32.30716
G1 X149.861 Y98.112 E32.33059
G1 X150.349 Y98.279 E32.34775
G1 X151.258 Y98.714 E32.38126
G1 X151.529 Y98.872 E32.3917
G1 X152.116 Y99.26 E32.4151
G1 X152.453 Y99.531 E32.42948
G1 X153.186 Y100.27 E32.4641
G1 X153.382 Y100.504 E32.47426
G1 X153.803 Y101.068 E32.49766
G1 X154.104 Y101.576 E32.5173
G1 X154.121 Y101.608 E32.51851
G1 X154.476 Y102.406 E32.54756
G1 X154.581 Y102.696 E32.55782
G1 X154.782 Y103.371 E32.58124
G1 X154.912 Y104.111 E32.60623
G1 X154.933 Y104.297 E32.61246
G1 X154.972 Y104.993 E32.63564
G1 X154.972 Y115.003 E32.96858
G1 X154.932 Y115.706 E32.992
G1 X154.876 Y116.089 E33.00487
G1 X154.818 Y116.415 E33.01588
G1 X154.563 Y117.384 E33.04921
G1 X154.55 Y117.421 E33.05051
G1 X154.28 Y118.071 E33.07392
G1 X154.058 Y118.487 E33.08961
G1 X153.903 Y118.753 E33.09985
G1 X153.514 Y119.341 E33.1233
G1 X153.257 Y119.663 E33.137
G1 X152.772 Y120.174 E33.16043
G1 X152.501 Y120.414 E33.17247
G1 X152.263 Y120.613 E33.18279
G1 X151.698 Y121.034 E33.20622
G1 X151.334 Y121.256 E33.2204
G1 X150.378 Y121.699 E33.25545
G1 X150.084 Y121.806 E33.26586
G1 X149.41 Y122.009 E33.28927
G1 X148.63 Y122.144 E33.3156
G1 X148.445 Y122.164 E33.32179
G1 X147.779 Y122.2 E33.34397
G1 X72.223 Y122.2 E35.85697
G1 X71.52 Y122.16 E35.88039
G1 X71.149 Y122.106 E35.89286
G1 X70.825 Y122.049 E35.9038
G1 X70.139 Y121.888 E35.92724
G1 X69.651 Y121.721 E35.94439
G1 X68.736 Y121.283 E35.97813
G1 X68.464 Y121.124 E35.98861
G1 X67.877 Y120.734 E36.01205
G1 X67.53 Y120.454 E36.02688
G1 X66.81 Y119.726 E36.06094
G1 X66.615 Y119.493 E36.07104
G1 X66.195 Y118.929 E36.09443
G1 X65.858 Y118.353 E36.11663
G1 X65.841 Y118.32 E36.11786
G1 X65.522 Y117.587 E36.14445
G1 X65.418 Y117.299 E36.15464
G1 X65.216 Y116.624 E36.17807
G1 X65.088 Y115.889 E36.20288
G1 X65.067 Y115.703 E36.20911
G1 X65.028 Y115.007 E36.2323
G1 X65.028 Y104.992 E36.5654
G1 X65.064 Y104.324 E36.58765
G1 X65.138 Y103.818 E36.60465
G1 X65.196 Y103.512 E36.61501
G1 X65.406 Y102.706 E36.64272
G1 X65.417 Y102.673 E36.64387
G1 X65.677 Y102.019 E36.66728
G1 X65.942 Y101.513 E36.68628
G1 X66.097 Y101.247 E36.69652
G1 X66.486 Y100.659 E36.71997
G1 X66.743 Y100.337 E36.73367
G1 X67.228 Y99.826 E36.7571
G1 X67.497 Y99.587 E36.76907
G1 X67.736 Y99.387 E36.77944
G1 X68.301 Y98.967 E36.80285
G0 F6000 X68.54 Y99.288
G1 F1200 X68.925 Y99.057 E36.81778
G1 X69.758 Y98.677 E36.84824
G1 X70.052 Y98.57 E36.85864
G1 X70.705 Y98.375 E36.88131
G1 X71.413 Y98.254 E36.9052
G1 X71.598 Y98.234 E36.91139
G1 X72.221 Y98.2 E36.93214
G1 X147.777 Y98.2 E39.44514
G1 X148.782 Y98.288 E39.4787
G1 X149.106 Y98.345 E39.48964
G1 X149.768 Y98.502 E39.51227
G1 X150.206 Y98.652 E39.52767
G1 X151.056 Y99.059 E39.55901
G1 X151.327 Y99.217 E39.56944
G1 X151.894 Y99.594 E39.59209
G1 X152.194 Y99.836 E39.60491
G1 X152.879 Y100.527 E39.63727
G1 X153.075 Y100.761 E39.64743
G1 X153.481 Y101.307 E39.67006
G1 X153.751 Y101.764 E39.68771
G1 X153.768 Y101.796 E39.68892
G1 X154.1 Y102.542 E39.71607
G1 X154.205 Y102.832 E39.72633
G1 X154.398 Y103.485 E39.74898
G1 X154.514 Y104.156 E39.77163
G1 X154.535 Y104.342 E39.77785
G1 X154.572 Y104.993 E39.79954
G1 X154.572 Y115.003 E40.13248
G1 X154.482 Y116.019 E40.1664
G1 X154.424 Y116.345 E40.17741
G1 X154.186 Y117.252 E40.2086
G1 X154.173 Y117.289 E40.20991
G1 X153.91 Y117.917 E40.23255
G1 X153.712 Y118.286 E40.24648
G1 X153.557 Y118.552 E40.25672
G1 X152.974 Y119.378 E40.29035
G1 X152.952 Y119.404 E40.29148
G1 X152.244 Y120.108 E40.32469
G1 X152.006 Y120.307 E40.335
G1 X151.459 Y120.712 E40.35764
G1 X151.136 Y120.909 E40.37023
G1 X150.242 Y121.323 E40.40299
G1 X149.948 Y121.43 E40.4134
G1 X149.295 Y121.625 E40.43607
G1 X148.587 Y121.746 E40.45996
G1 X148.402 Y121.766 E40.46614
G1 X147.779 Y121.8 E40.4869
G1 X72.223 Y121.8 E42.9999
G1 X71.218 Y121.712 E43.03345
